src/img/svg/designer-news-logo.svg

<svg width="48" height="48" viewBox="0 0 48 48" fill="none" xmlns="http://www.w3.org/2000/svg">
<mask id="mask0" mask-type="alpha" maskUnits="userSpaceOnUse" x="0" y="0" width="48" height="48">
<path d="M24 48C37.2548 48 48 37.2548 48 24C48 10.7452 37.2548 0 24 0C10.7452 0 0 10.7452 0 24C0 37.2548 10.7452 48 24 48Z" fill="white"/>
</mask>
<g mask="url(#mask0)">
<path d="M24 48C37.2548 48 48 37.2548 48 24C48 10.7452 37.2548 0 24 0C10.7452 0 0 10.7452 0 24C0 37.2548 10.7452 48 24 48Z" fill="#C4C4C4"/>
<path d="M7.25879 33.1363L27.385 48.107L76.8862 51.2203L38.9536 16.1107V24.1147L35.4147 21.5803L28.8294 16.1107L24.9091 22.5013L19.3975 17.9L9.7066 17.2856L7.25898 33.1365L7.25879 33.1363Z" fill="#828282"/>
<path d="M22.2818 24.5924C22.2818 19.5053 19.1552 16.0559 13.1995 16.0559H7.31836V33.1784H13.3236C19.1055 33.1784 22.2818 29.6796 22.2818 24.5924ZM18.0137 24.6171C18.0137 28.2899 16.1277 29.878 13.1003 29.878H11.5617V19.3564H13.1003C16.0035 19.3564 18.0137 21.019 18.0137 24.6171ZM39.181 33.1784V16.0559H35.2354V25.6347L28.9324 16.0557H24.813V33.1782H28.7586V22.9294L35.5084 33.1782H39.181V33.1784Z" fill="white"/>
</g>
</svg>

<svg width="48" height="48" fill="none" xmlns="http://www.w3.org/2000/svg"><mask id="a" maskUnits="userSpaceOnUse" x="0" y="0" width="48" height="48"><path d="M24 48c13.255 0 24-10.745 24-24S37.255 0 24 0 0 10.745 0 24s10.745 24 24 24z" fill="#fff"/></mask><g mask="url(#a)"><path d="M24 48c13.255 0 24-10.745 24-24S37.255 0 24 0 0 10.745 0 24s10.745 24 24 24z" fill="#C4C4C4"/><path d="M7.259 33.136l20.126 14.971 49.501 3.113-37.932-35.11v8.005l-3.54-2.535-6.585-5.47-3.92 6.391-5.511-4.601-9.691-.614-2.448 15.85z" fill="#828282"/><path d="M22.282 24.592c0-5.087-3.127-8.536-9.082-8.536H7.318v17.122h6.006c5.781 0 8.958-3.498 8.958-8.586zm-4.268.025c0 3.673-1.886 5.261-4.914 5.261h-1.538V19.356H13.1c2.903 0 4.914 1.663 4.914 5.261zm21.167 8.561V16.056h-3.946v9.579l-6.303-9.58h-4.119v17.123h3.946V22.93l6.75 10.25h3.672z" fill="#fff"/></g></svg>
